X:1
T:An dro de Pluherlin
R:An dro
A:Bretagne
O:France
M:4/4
L:1/8
Q:1/8=170
K:C 
A|dc AA/2B/2 AG AB/2c/2|d>c Ac A/2B/2A/2G/2 AA|
|dc AA/2B/2 AG AB/2c/2|d>c Ac A/2B/2A/2G/2 A2|
dc B>A dc B>A/2|dc B>A/2 dc BE|
AB c>c B/2A/2B/2c/2 BE/2E/2|AB c>A A/2B/2A/2G/2 AE|
AB c>c B/2A/2B/2c/2 BE/2E/2|AB c>A A/2B/2A/2G/2 A2||
W:C'est en dix ans, la bell' dites-moi
W:Ce qui fait danser ma mie auprs de moi (bis)
W:Le sais-tu bien 
W:Oui, je le sais
W:As-tu les cls
W:Oui, je les ai
W:C'est la rose du joli mois de mai
W:L qui fait danser ma mie auprs de moi (bis)
